X: 126
T: Mrs. Scott Skinner
R:Strathspey
C:J. Scott Skinner
S:MacDonald - Skye Collection
N:pg.158
M:C
L:1/8
K:D
A,|D>F A>B (B/A/)G/F/ (d>e)|(f/e/)d/c/ d[DF] [C2E2] [C3/2E3/2]F/|
D>FA>B (B/A/)G/F/ (d^G)|(A<d) f>e d2 [Fd]:|
f/g/|a>f d>A B<g ~g>B|(Af) (e>d) (e2 e)f/g/|a>fd>A B<g ~g>B|
[FA][Af][Af][Ge] [F2d2][Fd]f/g/|(^g/a/)b/a/ fd B<g ~g>B|[FA]f (ed) ec
A>G|(F/E/F/G/) A>_B (=B/A/G/F/) [G3/2d3/2]^G/|(A<d) f>e d2 [Fd]||
A,|(D/E/)F/G/ (A/^G/)A/B/ (B/A/)=G/F/ d>e|(f/e/)d/c/ d[DF] [C2E2] [C3/2E3/2]F/|
(D/E/)F/G/ (A/^G/)A/B/ (B/A/)=G/F/ [Gd]^G|(A<d) f>e d2 [Fd]:|
f/g/|(^g/a/)b/a/ (=g/f/)e/d/ (B/^d/)e/f/ g[GB]|[FA][Af] [Af][Ge] [F2d2] df/g/|
(^g/a/)b/a/ (=g/f/)e/d/ (B/^d/)e/f/ g[GB]|[FA][Ad] (ed) (ec) A>G|
(F/E/F/G/) (A/^G/A/_B/) (=B/A/=G/F/) d^G|A<d f>e d2 [Fd]||


